other/work-how-you-want.svg

<svg width="214px" height="98px" viewBox="0 0 214 98" version="1.1" xmlns="http://www.w3.org/2000/svg" xmlns:xlink="http://www.w3.org/1999/xlink">
    <g stroke="none" stroke-width="1" fill="none" fill-rule="evenodd">
        <g fill="#0078D7">
            <path d="M151.8818,43.541 C141.9188,34.034 129.0518,24.29 109.1568,24.119 L109.1788,21.603 C129.9498,21.782 143.2998,31.873 153.6178,41.722 L151.8818,43.541 Z"></path>
            <path d="M201.9941,24.1191 L209.2331,24.1191 L201.4371,31.9151 L203.2171,33.6941 L213.9731,22.9361 L203.2171,12.1811 L201.4371,13.9591 L209.0811,21.6021 L201.9501,21.6031 C185.2701,22.1851 174.1441,34.0511 162.3651,46.6131 C148.5451,61.3501 134.2561,76.5911 109.1571,76.8071 L109.1791,79.3231 C135.3541,79.0981 150.6801,62.7541 164.2001,48.3351 C175.6151,36.1621 186.3951,24.6641 201.9941,24.1191"></path>
            <path d="M201.4375,69.0107 L209.2335,76.8077 L202.0385,76.8077 C188.1125,76.3227 178.1515,67.1567 169.1415,57.8127 L167.3305,59.5587 C176.6975,69.2757 187.0855,78.8047 201.9945,79.3237 L209.0815,79.3237 L201.4375,86.9667 L203.2165,88.7457 L213.9735,77.9897 L203.2165,67.2317 L201.4375,69.0107 Z"></path>
            <path d="M48.8808,65.0156 C39.9598,65.0156 32.7018,57.7576 32.7018,48.8366 C32.7018,39.9156 39.9598,32.6586 48.8808,32.6586 C57.8018,32.6586 65.0598,39.9156 65.0598,48.8366 C65.0598,57.7576 57.8018,65.0156 48.8808,65.0156 M54.0208,-0.0004 L43.7628,-0.0004 C41.3288,-0.0004 39.3038,1.9026 39.1518,4.3306 L38.4408,15.6196 C36.4808,16.2346 34.5718,17.0256 32.7558,17.9756 L24.2698,10.4946 C23.4248,9.7506 22.3398,9.3406 21.2148,9.3406 C19.9798,9.3406 18.8188,9.8216 17.9458,10.6946 L10.6928,17.9466 C8.9728,19.6666 8.8848,22.4456 10.4938,24.2706 L17.9878,32.7706 C17.0458,34.5796 16.2618,36.4826 15.6508,38.4386 L4.3308,39.1516 C1.9018,39.3046 -0.0002,41.3306 -0.0002,43.7636 L-0.0002,54.0206 C-0.0002,56.4526 1.9018,58.4796 4.3298,58.6326 L15.6858,59.3476 C16.2988,61.2876 17.0838,63.1756 18.0248,64.9726 L10.4938,73.5136 C8.8858,75.3396 8.9738,78.1176 10.6928,79.8366 L17.9458,87.0896 C18.8188,87.9626 19.9798,88.4436 21.2148,88.4436 C22.3398,88.4436 23.4258,88.0346 24.2698,87.2886 L32.8328,79.7406 C34.6228,80.6696 36.5028,81.4466 38.4338,82.0516 L39.1518,93.4526 C39.3038,95.8806 41.3288,97.7836 43.7628,97.7836 L54.0208,97.7836 C56.4538,97.7836 58.4808,95.8806 58.6328,93.4526 L59.3508,82.0446 C61.2798,81.4376 63.1558,80.6616 64.9418,79.7336 L73.5138,87.2886 C74.3588,88.0336 75.4428,88.4436 76.5688,88.4436 C77.8038,88.4436 78.9638,87.9626 79.8358,87.0896 L87.0898,79.8366 C88.8108,78.1166 88.8978,75.3386 87.2888,73.5136 L79.7448,64.9556 C80.6818,63.1646 81.4638,61.2836 82.0748,59.3486 L93.4528,58.6326 C95.8818,58.4796 97.7828,56.4526 97.7828,54.0206 L97.7828,43.7636 C97.7828,41.3306 95.8818,39.3046 93.4538,39.1516 L82.1098,38.4376 C81.5008,36.4866 80.7198,34.5896 79.7808,32.7866 L87.2888,24.2706 C88.8988,22.4456 88.8108,19.6676 87.0898,17.9476 L79.8358,10.6936 C78.9638,9.8216 77.8038,9.3406 76.5688,9.3406 C75.4428,9.3406 74.3588,9.7506 73.5138,10.4946 L65.0198,17.9826 C63.2058,17.0346 61.3008,16.2436 59.3438,15.6266 L58.6328,4.3306 C58.4808,1.9036 56.4538,-0.0004 54.0208,-0.0004 M48.8808,67.5326 C59.2048,67.5326 67.5758,59.1616 67.5758,48.8366 C67.5758,38.5116 59.2048,30.1416 48.8808,30.1416 C38.5558,30.1416 30.1858,38.5116 30.1858,48.8366 C30.1858,59.1616 38.5558,67.5326 48.8808,67.5326 M54.0208,2.5166 C55.1318,2.5166 56.0518,3.3796 56.1208,4.4896 L56.8638,16.2986 C56.9118,17.0546 57.4368,17.6796 58.1608,17.8966 C60.2918,18.5346 62.3278,19.3826 64.2488,20.4236 C64.5268,20.5746 64.8308,20.6496 65.1318,20.6496 C65.5518,20.6496 65.9668,20.5026 66.2978,20.2106 L75.1778,12.3826 C75.5758,12.0316 76.0728,11.8566 76.5688,11.8566 C77.1088,11.8566 77.6478,12.0636 78.0578,12.4736 L85.3108,19.7266 C86.0968,20.5116 86.1358,21.7726 85.4018,22.6066 L77.5548,31.5066 C77.0548,32.0746 76.9818,32.8846 77.3398,33.5506 C78.3698,35.4656 79.2088,37.4946 79.8388,39.6166 C80.0548,40.3426 80.6808,40.8696 81.4378,40.9156 L93.2948,41.6626 C94.4038,41.7336 95.2678,42.6526 95.2678,43.7636 L95.2678,54.0206 C95.2678,55.1316 94.4038,56.0516 93.2948,56.1206 L81.4038,56.8696 C80.6508,56.9166 80.0248,57.4406 79.8078,58.1636 C79.1728,60.2716 78.3328,62.2856 77.3048,64.1866 C76.9438,64.8536 77.0168,65.6656 77.5178,66.2346 L85.4018,75.1776 C86.1358,76.0116 86.0968,77.2726 85.3108,78.0576 L78.0578,85.3116 C77.6478,85.7206 77.1098,85.9276 76.5688,85.9276 C76.0728,85.9276 75.5758,85.7526 75.1778,85.4016 L66.2208,77.5056 C65.8898,77.2136 65.4758,77.0676 65.0558,77.0676 C64.7558,77.0676 64.4528,77.1426 64.1758,77.2906 C62.2778,78.3126 60.2698,79.1466 58.1678,79.7756 C57.4428,79.9936 56.9188,80.6196 56.8708,81.3736 L56.1208,93.2936 C56.0518,94.4036 55.1318,95.2676 54.0208,95.2676 L43.7628,95.2676 C42.6518,95.2676 41.7328,94.4036 41.6618,93.2946 L40.9118,81.3806 C40.8638,80.6246 40.3398,79.9986 39.6138,79.7826 C37.5108,79.1546 35.4978,78.3206 33.5988,77.2986 C33.3208,77.1496 33.0188,77.0756 32.7198,77.0756 C32.2998,77.0756 31.8848,77.2216 31.5538,77.5136 L22.6058,85.4016 C22.2068,85.7526 21.7098,85.9276 21.2148,85.9276 C20.6748,85.9276 20.1358,85.7206 19.7258,85.3116 L12.4728,78.0576 C11.6868,77.2726 11.6478,76.0116 12.3818,75.1776 L20.2518,66.2506 C20.7538,65.6816 20.8248,64.8686 20.4638,64.2026 C19.4328,62.2956 18.5888,60.2756 17.9528,58.1626 C17.7348,57.4386 17.1098,56.9156 16.3568,56.8686 L4.4888,56.1206 C3.3798,56.0516 2.5168,55.1316 2.5168,54.0206 L2.5168,43.7636 C2.5168,42.6526 3.3798,41.7336 4.4888,41.6626 L16.3228,40.9176 C17.0788,40.8696 17.7058,40.3436 17.9218,39.6176 C18.5538,37.4906 19.3958,35.4556 20.4298,33.5366 C20.7878,32.8696 20.7158,32.0586 20.2148,31.4916 L12.3818,22.6066 C11.6478,21.7726 11.6868,20.5116 12.4728,19.7266 L19.7258,12.4736 C20.1358,12.0636 20.6748,11.8566 21.2148,11.8566 C21.7098,11.8566 22.2068,12.0316 22.6058,12.3826 L31.4778,20.2026 C31.8088,20.4946 32.2238,20.6416 32.6438,20.6416 C32.9428,20.6416 33.2478,20.5666 33.5258,20.4156 C35.4488,19.3746 37.4878,18.5266 39.6218,17.8906 C40.3478,17.6736 40.8718,17.0476 40.9198,16.2916 L41.6618,4.4896 C41.7328,3.3796 42.6518,2.5166 43.7628,2.5166 L54.0208,2.5166"></path>
        </g>
    </g>
</svg>

<svg width="214" height="98" xmlns="http://www.w3.org/2000/svg">
    <g fill="#0078D7" fill-rule="evenodd">
        <path d="M151.882 43.541c-9.963-9.507-22.83-19.251-42.725-19.422l.022-2.516c20.77.179 34.12 10.27 44.439 20.119l-1.736 1.819zM201.994 24.12h7.24l-7.797 7.795 1.78 1.78 10.756-10.759-10.756-10.755-1.78 1.778 7.644 7.643-7.13.001c-16.68.582-27.807 12.448-39.586 25.01-13.82 14.737-28.109 29.978-53.208 30.194l.022 2.516c26.175-.225 41.501-16.569 55.021-30.988 11.415-12.173 22.195-23.67 37.794-24.216M201.438 69.01l7.796 7.798h-7.196c-13.925-.485-23.887-9.651-32.897-18.995l-1.81 1.746c9.367 9.717 19.755 19.246 34.663 19.765h7.088l-7.644 7.643 1.779 1.779 10.756-10.756-10.757-10.758-1.779 1.779zM48.88 65.016c-8.92 0-16.178-7.258-16.178-16.18 0-8.92 7.258-16.177 16.179-16.177 8.92 0 16.179 7.257 16.179 16.178 0 8.92-7.258 16.179-16.18 16.179M54.02 0H43.764a4.628 4.628 0 00-4.611 4.33l-.711 11.29a34.69 34.69 0 00-5.685 2.356l-8.486-7.481a4.621 4.621 0 00-3.055-1.154 4.593 4.593 0 00-3.27 1.354l-7.252 7.252a4.631 4.631 0 00-.2 6.324l7.495 8.5a34.675 34.675 0 00-2.337 5.668l-11.32.713A4.63 4.63 0 000 43.764V54.02a4.63 4.63 0 004.33 4.612l11.356.715a34.644 34.644 0 002.339 5.625l-7.531 8.54a4.632 4.632 0 00.199 6.324l7.253 7.253a4.593 4.593 0 003.269 1.354 4.61 4.61 0 003.055-1.155l8.563-7.548c1.79.929 3.67 1.706 5.6 2.31l.719 11.402a4.628 4.628 0 004.61 4.33h10.259a4.63 4.63 0 004.612-4.33l.718-11.408a34.796 34.796 0 005.59-2.311l8.573 7.555a4.615 4.615 0 003.055 1.155 4.587 4.587 0 003.267-1.354l7.254-7.253a4.629 4.629 0 00.199-6.323l-7.544-8.558a34.558 34.558 0 002.33-5.607l11.378-.716a4.63 4.63 0 004.33-4.612V43.764a4.629 4.629 0 00-4.33-4.612l-11.343-.714a34.515 34.515 0 00-2.33-5.651l7.509-8.516a4.628 4.628 0 00-.2-6.323l-7.253-7.254a4.59 4.59 0 00-3.267-1.353c-1.126 0-2.21.41-3.055 1.154l-8.494 7.488a34.986 34.986 0 00-5.676-2.356L58.633 4.33A4.63 4.63 0 0054.02 0m-5.14 67.533c10.324 0 18.695-8.371 18.695-18.696 0-10.325-8.371-18.695-18.695-18.695-10.325 0-18.695 8.37-18.695 18.695 0 10.325 8.37 18.696 18.695 18.696m5.14-65.016c1.11 0 2.03.863 2.1 1.973l.743 11.809c.048.756.573 1.38 1.297 1.598a32.076 32.076 0 016.088 2.527c.278.15.582.226.883.226.42 0 .835-.147 1.166-.44l8.88-7.827a2.1 2.1 0 012.88.091l7.253 7.253c.786.785.825 2.046.09 2.88l-7.846 8.9c-.5.568-.573 1.378-.215 2.044a32.059 32.059 0 012.499 6.066c.216.726.842 1.253 1.599 1.299l11.857.747a2.106 2.106 0 011.973 2.1v10.258a2.104 2.104 0 01-1.973 2.1l-11.891.749c-.753.047-1.38.57-1.596 1.294a32.14 32.14 0 01-2.503 6.023 1.792 1.792 0 00.213 2.048l7.884 8.943a2.105 2.105 0 01-.091 2.88l-7.253 7.254a2.102 2.102 0 01-2.88.09l-8.957-7.896a1.752 1.752 0 00-1.165-.438c-.3 0-.603.075-.88.223a32.024 32.024 0 01-6.008 2.485c-.725.218-1.25.844-1.297 1.598l-.75 11.92a2.104 2.104 0 01-2.1 1.974H43.763a2.106 2.106 0 01-2.101-1.973l-.75-11.914a1.793 1.793 0 00-1.298-1.598 32.018 32.018 0 01-6.015-2.484 1.86 1.86 0 00-.88-.223c-.42 0-.834.146-1.165.438l-8.948 7.888a2.102 2.102 0 01-2.88-.09l-7.253-7.254a2.105 2.105 0 01-.091-2.88l7.87-8.927c.502-.57.573-1.382.212-2.048a32.218 32.218 0 01-2.511-6.04c-.218-.724-.843-1.247-1.596-1.294L4.489 56.12a2.103 2.103 0 01-1.972-2.1V43.764c0-1.111.863-2.03 1.972-2.101l11.834-.745c.756-.048 1.383-.574 1.599-1.3a32.068 32.068 0 012.508-6.081c.358-.667.286-1.478-.215-2.045l-7.833-8.885a2.105 2.105 0 01.09-2.88l7.254-7.253a2.1 2.1 0 012.88-.091l8.872 7.82c.33.292.746.439 1.166.439.299 0 .604-.075.882-.226a31.986 31.986 0 016.096-2.525c.726-.217 1.25-.843 1.298-1.6l.742-11.801a2.106 2.106 0 012.1-1.973h10.259"/>
    </g>
</svg>
